X:1
T:Utah Carroll
M:2/4
L:1/8
K:C
 B-| BB d3/2 d/2| GB BB| GG AG|E-D-D D| EG GE| ED-D G| ^FG AA| G3||\


